public/img/moods/amused.svg

<?xml version="1.0" encoding="UTF-8" standalone="no"?>
<!-- Generator: Adobe Illustrator 16.0.0, SVG Export Plug-In . SVG Version: 6.00 Build 0)  -->
<!DOCTYPE svg  PUBLIC '-//W3C//DTD SVG 1.1//EN'  'http://www.w3.org/Graphics/SVG/1.1/DTD/svg11.dtd'>
<svg id="Capa_1" style="enable-background:new 0 0 478.2 478.2" xmlns="http://www.w3.org/2000/svg" xml:space="preserve" height="512px" viewBox="0 0 478.2 478.2" width="512px" version="1.1" y="0px" x="0px" xmlns:xlink="http://www.w3.org/1999/xlink">
	<path d="m133.9 306h38.2v47.8c0 36.3 30.6 66.9 66.9 66.9s66.9-30.601 66.9-66.9v-47.8h38.2v-19.1h-210.2v19.1zm57.4 0h95.6v47.8c0 26.8-21 47.8-47.801 47.8-26.8 0-47.8-21-47.8-47.8v-47.8zm-57.4-133.9c0-10.5 8.6-19.1 19.1-19.1s19.1 8.6 19.1 19.1-8.6 19.1-19.1 19.1-19.1-8.6-19.1-19.1zm105.2-172.1c-132 0-239.1 107.1-239.1 239.1s107.1 239.1 239.1 239.1 239.1-107.1 239.1-239.1-107.2-239.1-239.1-239.1zm0 459c-122.4 0-219.9-97.5-219.9-219.9s97.5-219.9 219.9-219.9 219.9 97.5 219.9 219.9-97.5 219.9-219.9 219.9zm105.1-286.9c0 10.5-8.601 19.1-19.101 19.1s-19.1-8.6-19.1-19.1 8.6-19.1 19.1-19.1 19.1 8.6 19.1 19.1z" fill="#5da0bf"/>
</svg>

<?xml version="1.0" encoding="iso-8859-1"?>
<!-- Generator: Adobe Illustrator 16.0.0, SVG Export Plug-In . SVG Version: 6.00 Build 0)  -->
<!DOCTYPE svg PUBLIC "-//W3C//DTD SVG 1.1//EN" "http://www.w3.org/Graphics/SVG/1.1/DTD/svg11.dtd">
<svg xmlns="http://www.w3.org/2000/svg" xmlns:xlink="http://www.w3.org/1999/xlink" version="1.1" id="Capa_1" x="0px" y="0px" width="512px" height="512px" viewBox="0 0 478.2 478.2" style="enable-background:new 0 0 478.2 478.2;" xml:space="preserve">
<g>
	<path d="M133.9,306h38.2v47.8c0,36.3,30.6,66.9,66.9,66.9s66.9-30.601,66.9-66.9V306H344.1v-19.1H133.9V306z M191.3,306H286.9v47.8   c0,26.8-21,47.8-47.801,47.8c-26.8,0-47.8-21-47.8-47.8V306L191.3,306z M133.9,172.1c0-10.5,8.6-19.1,19.1-19.1s19.1,8.6,19.1,19.1   s-8.6,19.1-19.1,19.1S133.9,182.6,133.9,172.1z M239.1,0C107.1,0,0,107.1,0,239.1C0,371.1,107.1,478.2,239.1,478.2   C371.1,478.2,478.2,371.1,478.2,239.1C478.2,107.1,371,0,239.1,0z M239.1,459C116.7,459,19.2,361.5,19.2,239.1   C19.2,116.7,116.7,19.2,239.1,19.2C361.5,19.2,459,116.7,459,239.1C459,361.5,361.5,459,239.1,459z M344.2,172.1   c0,10.5-8.601,19.1-19.101,19.1s-19.1-8.6-19.1-19.1s8.6-19.1,19.1-19.1S344.2,161.6,344.2,172.1z" fill="#5da0bf"/>
</g>
<g>
</g>
<g>
</g>
<g>
</g>
<g>
</g>
<g>
</g>
<g>
</g>
<g>
</g>
<g>
</g>
<g>
</g>
<g>
</g>
<g>
</g>
<g>
</g>
<g>
</g>
<g>
</g>
<g>
</g>
</svg>
